icon-themes/sifr_svg/cmd/sc_grow.svg

<svg viewBox="0 0 16 16" xmlns="http://www.w3.org/2000/svg"><path d="m12.5625 0-.28125.28125-2 2c-.18821.18818-.28125.45346-.28125.71875v1h1c.26531.00004.53057-.09314.71875-.28125l.28125-.28125v2.5625h2v-2.5625l.28125.28125c.18817.18815.45345.28125.71875.28125h1v-1c-.00003-.26531-.09311-.53058-.28125-.71875l-2-2-.28125-.28125zm-10.5625 3v2h5c.552285 0 1 .4477153 1 1v1h-5c-1.6568542 0-3 1.3431458-3 3 0 1.656854 1.3431458 3 3 3h7v-7c0-1.6568542-1.343146-3-3-3zm1 6h5v2h-5c-.5522847 0-1-.447715-1-1 0-.5522847.4477153-1 1-1z" fill="#555753"/></svg>

<svg xmlns="http://www.w3.org/2000/svg" viewBox="0 0 16 16">
  <path
     style="fill:#555753"
     d="M 12.5625 0 L 12.28125 0.28125 L 10.28125 2.28125 C 10.09304 2.46943 10 2.73471 10 3 L 10 4 L 11 4 C 11.26531 4.00004 11.53057 3.90686 11.71875 3.71875 L 12 3.4375 L 12 6 L 14 6 L 14 3.4375 L 14.28125 3.71875 C 14.46942 3.9069 14.7347 4 15 4 L 16 4 L 16 3 C 15.99997 2.73469 15.90689 2.46942 15.71875 2.28125 L 13.71875 0.28125 L 13.4375 0 L 12.5625 0 z M 2 3 L 2 5 L 7 5 C 7.552285 5 8 5.4477153 8 6 L 8 7 L 3 7 C 1.3431458 7 0 8.3431458 0 10 C 0 11.656854 1.3431458 13 3 13 L 10 13 L 10 6 C 10 4.3431458 8.656854 3 7 3 L 2 3 z M 3 9 L 8 9 L 8 11 L 3 11 C 2.4477153 11 2 10.552285 2 10 C 2 9.4477153 2.4477153 9 3 9 z "
     />
</svg>
